X:1
T:Title
L:1/8
Q:1/4=160
M:6/8
K:F
V:1 treble nm="Grand Piano"
V:1
 G3/2G3/2 G3/2G3/2 | B3 B3 | A3 G3 | D6 | C3/2C3/2 C3/2C3/2 | F3 F3/2F3/2 | _E3/2E3/2 F3 | D6 | %8
w: ?????~???? * * *||||||||
 G3/2G3/2 G3/2G3/2 | B3 B3 | A3 G3 | D6 | C3/2C3/2 C3/2C3/2 | F3 F3/2F3/2 | _E3/2E3/2 F3 | D6 | %16
w: ||||||||
 G3/2G3/2 G3/2G3/2 | F3 F3 | G2 G G2 G | D6 | G2 G G2 G | F3 D2 F | G6- | G6 | B3/2B3/2 B3 | %25
w: |||||||||
 A3 G3/2G3/2 | A3- A2 A | D6 | B2 B B2 B | A2 A G2 G | d6- | d6 |] %32
w: |||||||

